X: 5
T: Missa L'homme arm\'e quarti toni / Agnus Dei
N: Derived from Com1002e-Missa_Lhomme_arme-Agnus.krn
C: Loyset Comp\`ere
%%abc-version 2.0
%%abcx-abcm2ps-target-version 5.9.1 (29 Sep 2008)
%%abc-creator hum2abc beta
%%abcx-conversion-date 2019/02/16 20:28:09
%%abc-edited-by Jesse Rodin
%%abc-edited-by Jesse Rodin; Victoria Chang 2012/02/26
%%abcx-initial-encoding-date 2012/02/26/
%%humdrum-veritas 344936621
%%humdrum-veritas-data 2801956045
%%linebreak <none>
%%barnumbers 0
L: 1/4
M: 3/1
Q: 1/2=120
%%staves [1 2 3 4]
V: 1 clef=treble
V: 2 clef=treble-8
V: 3 clef=treble-8
V: 4 clef=bass
K: C
[V:1] z12 | 
[V:2] z12 | 
[V:3] z12 | 
[V:4] E,8E,4 | 
[V:1] E8E4 | 
[V:2] z12 | 
[V:3] z12 | 
[V:4] A,6G,2G,4 | 
[V:1] A6G2G4 | 
[V:2] z12 | 
[V:3] z12 | 
[V:4] F,6E,2E,4 | 
[V:1] F3EE8 | 
[V:2] z12 | 
[V:3] z12 | 
[V:4] z2A,4G,3F,E,D, | 
[V:1] z2A4G3FED | 
[V:2] z12 | 
[V:3] z12 | 
[V:4] C,2D,2A,,2E,3F,G,2 | 
[V:1] C2D2A,3B,C2D2- | 
[V:2] z12 | 
[V:3] F8F4 | 
[V:4] A,2D,3E,D,C,/B,,/A,,2D,2 | 
[V:1] DCE2D2G3FED | 
[V:2] z12 | 
[V:3] _B8_B4 | 
[V:4] G,,8G,,4 | 
[V:1] C12 | 
[V:2] E8E4 | 
[V:3] A4G8 | 
[V:4] A,,3B,,C,4C,4 | 
[V:1] C6D2C2F2- | 
[V:2] A8A4 | 
[V:3] F12 | 
[V:4] F,,8F,,4 | 
[V:1] F2E2F4A4- | 
[V:2] G4F8 | 
[V:3] z12 | 
[V:4] C,4D,8 | 
[V:1] A4G8 | 
[V:2] E12 | 
[V:3] c4c4c4 | 
[V:4] A,,4C,8 | 
[V:1] F2A3GFEF4 | 
[V:2] z12 | 
[V:3] F12 | 
[V:4] D,8D,4 | 
[V:1] E3FG4G,4 | 
[V:2] B4B4B4 | 
[V:3] z12 | 
[V:4] E,6D,C,B,,4 | 
[V:1] A,4z2A,3B,C2 | 
[V:2] E12 | 
[V:3] c4c4c4 | 
[V:4] A,,8A,,4 | 
[V:1] D2E2D2G4^F2 | 
[V:2] z12 | 
[V:3] B8A4 | 
[V:4] G,,8D,4 | 
[V:1] G8D4 | 
[V:2] B4B4B4 | 
[V:3] G12 | 
[V:4] G,,8G,,4 | 
[V:1] D4A,2C3DE2 | 
[V:2] A8G4 | 
[V:3] F8z4 | 
[V:4] D,6A,,2C,4 | 
[V:1] D2F3EC2D3C | 
[V:2] F12 | 
[V:3] A12 | 
[V:4] D,6A,,2D,4 | 
[V:1] E12 ||  
[V:2] E12 ||  
[V:3] B12 ||  
[V:4] z2G,4F,E,E,4 ||  
[V:1]  [K:C] [K:clef=treble][M:2/1]z8 | 
[V:2]  [K:C] [K:clef=treble-8][M:2/1]z8 | 
[V:3]  [K:C] [K:clef=treble-8][M:4/2]e8- :
[V:4]  [K:C] [K:clef=bass][M:2/1]E,3F,G,2A,2- | 
[V:1] z8 | 
[V:2] z4A3B | 
[V:3] e8 | 
[V:4] A,2G,2A,4 | 
[V:1] z8 | 
[V:2] c2d4c2 | 
[V:3] e8 :
[V:4] z8 | 
[V:1] z8 | 
[V:2] d6cB | 
[V:3] d8- | 
[V:4] D,3E,F,2G,2- | 
[V:1] z8 | 
[V:2] A4G3A | 
[V:3] d8 :
[V:4] G,2F,2G,4- | 
[V:1] z8 | 
[V:2] B2c4B2 | 
[V:3] d8 | 
[V:4] G,2F,E,D,4 | 
[V:1] z4G3A | 
[V:2] c6BA | 
[V:3] e8- :
[V:4] C,8 | 
[V:1] B2c4B2 | 
[V:2] G2A4G2 | 
[V:3] e8 | 
[V:4] z8 | 
[V:1] c2A2G4 | 
[V:2] A4E2G2- | 
[V:3] e8 :
[V:4] z4z2E,2- | 
[V:1] z8 | 
[V:2] G2F2G2FE | 
[V:3] B8- | 
[V:4] E,2D,2E,4 | 
[V:1] z2G4FE | 
[V:2] D2G2z4 | 
[V:3] B8 :
[V:4] D,2E,3D,G,2- | 
[V:1] D2G2z4 | 
[V:2] z4z2d2- | 
[V:3] B8 | 
[V:4] G,2F,E,D,3E, | 
[V:1] z4z2G2- | 
[V:2] d2cBA2G2 | 
[V:3] z8 :
[V:4] D,2E,2F,2G,2 | 
[V:1] G2A2G2c2- | 
[V:2] c4cBAG | 
[V:3] e8- | 
[V:4] C,8 | 
[V:1] cBAGA2D2 | 
[V:2] A2E2A4 | 
[V:3] e8 :
[V:4] A,,4A,,B,,C,D, | 
[V:1] z2G3ABc | 
[V:2] GABcB2G2 | 
[V:3] e8 | 
[V:4] E,8 | 
[V:1] B2G2A2F2- | 
[V:2] z4F3G | 
[V:3] d8- :
[V:4] G,4D,4- | 
[V:1] FGA_BA2B2- | 
[V:2] A_BA2D2G2- | 
[V:3] d8 | 
[V:4] D,4z4 | 
[V:1] B2A4G2 | 
[V:2] G2F2_B4 | 
[V:3] d8 :
[V:4] z8 | 
[V:1] A4z2c2- | 
[V:2] A8 | 
[V:3] e8- | 
[V:4] A,,8 | 
[V:1] cBcB/A/G4 | 
[V:2] z2c3BcB/A/ | 
[V:3] e8 :
[V:4] A,,4C,4- | 
[V:1] z4G3F | 
[V:2] G4z4 | 
[V:3] e8 | 
[V:4] C,4C,4 | 
[V:1] GF/E/D2G3A | 
[V:2] G3FGF/E/D2 | 
[V:3] B8- :
[V:4] G,,8 | 
[V:1] B2G2z4 | 
[V:2] G3AB2G2 | 
[V:3] B8 | 
[V:4] z2G,3F,G,F,/E,/ | 
[V:1] z8 | 
[V:2] A2c4B2 | 
[V:3] z8 :
[V:4] D,2C,2D,4 | 
[V:1] G4G4 | 
[V:2] c4z4 | 
[V:3] e8 | 
[V:4] C,4G,4 | 
[V:1] A4AGFE | 
[V:2] c4d2A2- | 
[V:3] f8- :
[V:4] F,4D,4- | 
[V:1] D2A3Bc2- | 
[V:2] AGFED2A2- | 
[V:3] f8 | 
[V:4] D,4z4 | 
[V:1] cBAGA2G2- | 
[V:2] ABc3BAG | 
[V:3] e8 :
[V:4] z4A,,4 | 
[V:1] G2^F2G4 | 
[V:2] A4G4- | 
[V:3] d8 | 
[V:4] D,4G,,4 | 
[V:1] E3FG2A2- | 
[V:2] G4z2C2- | 
[V:3] c8- :
[V:4] C,4C,B,,A,,G,, | 
[V:1] A2GFE2A,2 | 
[V:2] C2D2E2F2 | 
[V:3] c8 | 
[V:4] A,,4A,,4 | 
[V:1] D8 ||  
[V:2] G8 ||  
[V:3] B8 ||  
[V:4] G,,8 ||  
[V:1]  [K:C] [K:clef=treble][M:3/1]D8D4 | 
[V:2]  [K:C] [K:clef=treble-8][M:3/1]z12 | 
[V:3]  [K:C] [K:clef=treble-8][M:3/1]z12 | 
[V:4]  [K:C] [K:clef=bass][M:3/1]z12 | 
[V:1] G6F2E4 | 
[V:2] z12 | 
[V:3] z12 | 
[V:4] C,8C,4 | 
[V:1] D6C2A,2B,2 | 
[V:2] z12 | 
[V:3] D8D4 | 
[V:4] F,6E,2D,4 | 
[V:1] C4z2C3DE2 | 
[V:2] E8E4 | 
[V:3] G8G4 | 
[V:4] C,8C,4 | 
[V:1] F2EDC8 | 
[V:2] A8A4 | 
[V:3] F4E8- | 
[V:4] D,4A,,8 | 
[V:1] C4A,2D3EF2- | 
[V:2] G4F8- | 
[V:3] E4D8 | 
[V:4] C,4z4D,4- | 
[V:1] FED2C4CDEF | 
[V:2] F4E8 | 
[V:3] A8A4 | 
[V:4] D,4A,,8 | 
[V:1] G4D2G3AB2 | 
[V:2] B8B4 | 
[V:3] D8z4 | 
[V:4] G,,12 | 
[V:1] c2A3G/F/E2F2EF | 
[V:2] E8z4 | 
[V:3] A4A4A4 | 
[V:4] A,,8D,4 | 
[V:1] G8z2D2- | 
[V:2] B4B4B4 | 
[V:3] G8G4 | 
[V:4] G,,4z2G,,3A,,B,,C, | 
[V:1] DEFGA2E2z2C2- | 
[V:2] A8A4 | 
[V:3] F4E8- | 
[V:4] D,4A,,8 | 
[V:1] CDE2A,2F3EDC | 
[V:2] G4F8- | 
[V:3] E4D8 | 
[V:4] C,4z4D,4- | 
[V:1] D4E8 | 
[V:2] F4E8 | 
[V:3] z12 | 
[V:4] D,4A,,3B,,C,4 | 
[V:1] F3GA2_B2A2B2 | 
[V:2] z12 | 
[V:3] d8d4 | 
[V:4] D,3E,F,2G,2D,2G,2 | 
[V:1] G4z2G4A2 | 
[V:2] e8e4 | 
[V:3] c8c4 | 
[V:4] C,8C,4 | 
[V:1] _B2A4G2A4- | 
[V:2] d8d4 | 
[V:3] d4B4A4- | 
[V:4] G,2F,2G,4D,4 | 
[V:1] A4A4G4 | 
[V:2] e4c4B4- | 
[V:3] A4z4d4 | 
[V:4] z4F,4G,4- | 
[V:1] z2G3FEDC2c2- | 
[V:2] B4z4e4 | 
[V:3] d4c8 | 
[V:4] G,4C,8 | 
[V:1] cBAGB2A4G2 | 
[V:2] e4d8 | 
[V:3] c4d2A2B4 | 
[V:4] C,4G,2F,2G,4 | 
[V:1] A4G8 | 
[V:2] d4e2B2c4 | 
[V:3] A4z2d2e4- | 
[V:4] D,2F,2E,2G,2C,3D, | 
[V:1] G4c4z2A2- | 
[V:2] B4z2e2f4- | 
[V:3] e4e4d4- | 
[V:4] E,4C,4D,4 | 
[V:1] A2B3AA4^G2 | 
[V:2] f4f4e4- | 
[V:3] d4c2d2B4 | 
[V:4] D,3E,F,2D,2E,4 | 
[V:1] A4z2E4F2 | 
[V:2] e4d2e2c4 | 
[V:3] A8z4 | 
[V:4] A,,4D,2C,3B,,A,,2 | 
[V:1] G8D2G2- | 
[V:2] B8z4 | 
[V:3] D4D4G4- | 
[V:4] G,,8G,,4 | 
[V:1] GFE3DCB,A,2D2- | 
[V:2] E4E4A4- | 
[V:3] G4G4F2D2 | 
[V:4] C,8D,4 | 
[V:1] D2C2D2F3EE2- | 
[V:2] A4A4G2E2 | 
[V:3] E4D4z4 | 
[V:4] A,,4z2D,2E,2C,2 | 
[V:1] E2D2E4F4 | 
[V:2] F4E4z4 | 
[V:3] A4A4D4 | 
[V:4] D,4A,,4A,4 | 
[V:1] G4GABA/B/c2A2- | 
[V:2] B4B4E4 | 
[V:3] z4z4A4 | 
[V:4] E,3F,G,2G,,2A,,4 | 
[V:1] AGE2F3E/F/G4 | 
[V:2] z4z4B4 | 
[V:3] A4A4G4- | 
[V:4] D,2C,2D,4G,,4- | 
[V:1] z2D4E3DD2- | 
[V:2] B4B4A4- | 
[V:3] G8F2D2 | 
[V:4] G,,4G,,4D,4 | 
[V:1] D2C2D2F2E2G2 | 
[V:2] A8G2E2 | 
[V:3] E4D4z4 | 
[V:4] A,,4z2D,2E,2C,2 | 
[V:1] F2EDC4F4 | 
[V:2] F4E4z4 | 
[V:3] A4A4D4 | 
[V:4] D,4A,,4A,4 | 
[V:1] G3F/E/D4CDED/E/ | 
[V:2] B4B4E4 | 
[V:3] z4z4A2A2 | 
[V:4] E,3F,G,2G,,2A,,4 | 
[V:1] F2E4D2E3F | 
[V:2] z4z4B2B2 | 
[V:3] A2G4F2E4 | 
[V:4] D,2E,2C,2D,2G,4 | 
[V:1] G2F3EE4D2 | 
[V:2] B2A4G2F4 | 
[V:3] D4z4A4 | 
[V:4] G,,2D,2A,,2C,2D,4 | 
[V:1] E12 |]  
[V:2] E12 |]  
[V:3] B12 |]  
[V:4] z2G,4F,E,E,4 |]  



